dist/img/icons_map/saf_act.svg

<svg width="48" height="48" viewBox="0 0 48 48" fill="none" xmlns="http://www.w3.org/2000/svg">
<rect width="48" height="48" rx="24" fill="#8F9190"/>
<path d="M8.21436 23.5C8.21436 20.4624 10.6768 18 13.7144 18H38.5V29H13.7144C10.6768 29 8.21436 26.5376 8.21436 23.5Z" fill="white"/>
<path d="M9.60893 25.35H11.9295C11.9295 26.7964 13.06 27.3603 14.342 27.3603C15.1816 27.3603 16.464 27.1166 16.464 26.0048C16.464 24.8328 14.8309 24.6344 13.2268 24.2075C11.6089 23.7814 9.97506 23.1566 9.97506 21.1161C9.97506 19.6311 10.9158 18.663 12.1272 18.1835C9.75155 18.8091 8 20.9663 8 23.5321C8 26.1337 9.80148 28.3145 12.2278 28.9046C10.7133 28.3949 9.58789 27.2464 9.60893 25.35Z" fill="#8F9190"/>
<path d="M25.5934 21.4801L24.808 18H24.4395L23.6359 21.4773L25.5934 21.4801Z" fill="#8F9190"/>
<path d="M22.3034 25.5869L21.2485 29.0635H27.812L26.9057 25.5869H22.3034Z" fill="#8F9190"/>
<path d="M26.8466 18L28.526 23.04H20.7159L22.4622 18H15.6071C17.1978 18.3799 18.4194 19.4098 18.4194 21.3288H16.0989C16.022 20.0194 15.0908 19.6849 13.9452 19.6849C13.1816 19.6849 12.2959 20.0043 12.2959 20.9178C12.2959 21.7553 12.8154 21.8624 15.5493 22.5629C16.3426 22.7604 18.7856 23.2634 18.7856 25.7304C18.7856 27.3472 17.7522 28.6335 15.7838 29.0636H18.7076L20.4773 24.0033H28.8366L30.3453 29.0636H31.0863V18H26.8466Z" fill="#8F9190"/>
<path d="M38.6304 18V20.0632H33.4237V22.5812H37.9452V24.4788H33.4237V29.0636H38.6304V18Z" fill="#8F9190"/>
</svg>

<svg width="48" height="48" viewBox="0 0 48 48" fill="none" xmlns="http://www.w3.org/2000/svg"><rect width="48" height="48" rx="24" fill="#8F9190"/><path d="M8.214 23.5a5.5 5.5 0 015.5-5.5H38.5v11H13.714a5.5 5.5 0 01-5.5-5.5z" fill="#fff"/><path d="M9.609 25.35h2.32c0 1.446 1.131 2.01 2.413 2.01.84 0 2.122-.243 2.122-1.355 0-1.172-1.633-1.37-3.237-1.797-1.618-.427-3.252-1.051-3.252-3.092 0-1.485.94-2.453 2.152-2.933A5.536 5.536 0 008 23.533a5.535 5.535 0 004.228 5.372c-1.515-.51-2.64-1.659-2.62-3.555zm15.984-3.87L24.808 18h-.369l-.803 3.477 1.957.003zm-3.29 4.107l-1.055 3.477h6.564l-.906-3.477h-4.603z" fill="#8F9190"/><path d="M26.847 18l1.679 5.04h-7.81L22.462 18h-6.855c1.59.38 2.812 1.41 2.812 3.329H16.1c-.077-1.31-1.008-1.644-2.154-1.644-.763 0-1.65.32-1.65 1.233 0 .837.52.944 3.254 1.645.794.197 3.237.7 3.237 3.167 0 1.617-1.034 2.904-3.002 3.334h2.924l1.77-5.06h8.359l1.508 5.06h.741V18h-4.24zm11.783 0v2.063h-5.206v2.518h4.521v1.898h-4.521v4.585h5.206V18z" fill="#8F9190"/></svg>
